X:859
M:C|
L:1/8
K:B Minor
|:e/d/c/B/ f>B d>f b<f|a>f e<a c<A a>c|1 e/d/c/B/ f>B d>fb>f|a>fe>c B/B/B f2:|2
e/d/c/B/ f<d e<cd<B|A<F E>C B,/B,/B, F2||

